X:1
T: The Corduroy
C:
R:Strathspey
Q: 128
K:A
M:4/4
L:1/16
|:cc3 c3B A3B c3d|ee3 e3c e4 a4|cc3 c3B A3B A3G|Af3 f3^e f6a2|
cc3 c3B A3B c3d|ee3 e3c e4 a4|cc3 c3B A3B A3G|Af3 f3^e f6a2|
e3f a3b aa3 a3e|ce3 e3c e4a4|((3f2e2d2) ((3c2d2B2) A3B A3G|Ff3 f3^e f4f4:|
